X: 13
T:March,A. BF11.13
M:4/4
Q:160
C:Browne A hand
S:MS11,c1800.,Browne Coll.,Lakes
R:March
O:England
A:Lakes
Z:vmp.Chris Partington
K:G
BA|G2BGA2dc|Bgfed2cB|c2ecB2gB|A2AAA2BA|!
G2BGA2dc|Bgfed2Bd|e2cef2de/f/|g2GGG2:|!
|:Bc|d2dBd2gd|e2ece2ge|d2cBA2GA/B/|A2AAA2BA|!
G2BGA2dc|Bgfe d2Bd|e2cef2de/f/|g2GGG2:|]
